X:1
T:Title
%%score { ( 1 3 ) | ( 2 4 ) }
L:1/8
M:4/4
K:Ab
V:1 treble nm="Grand Piano"
V:3 treble 
V:2 bass 
V:4 bass 
V:1
 z4 z2[Q:1/4=100] [CE]2 | [CA]3 [DB] [Ec]>[CE] [CF]>[CA] | [DG]6 E2 | B3 =A B2 [Fd]2 | %4
 [Ec]6 [CE]2 | [CA]3 [DB] [Ec]>[CE] [CF]>[CA] | [DG]6[K:bass][K:treble] z2 | %7
 [EAc]3 [FAd] [EAc]2 [DGB]2 |[M:3/4] [CEA]6 |[M:1/4] [Ec]2 |[M:4/4] [Ge]3 [Gd] [DEB]2 [B,EG]2 | %11
 [A,EA]>[EB] [EA]>B c2 c2 | B3 A G2 [=DF]2 |[M:3/4] E6 |[M:1/4] E2 | %15
[M:4/4] [Ec]3 [DB] [CA]>[Ec] [EB]>[EA] | z2 E2 D2 [Fd]2 | c3 d c2 B2 |[M:3/4] [CA]6 |] %19
V:2
 z4 z2 [A,,A,]2 | [A,,E,]3 [A,,E,] [A,,A,]>[A,,A,] [A,,A,]>[A,,E,] | [B,,E,]6 [E,G,D]2 | %3
 [E,G,D]3 [E,_G,C] [E,=G,D]2 [E,G,]2 | [A,,A,]6 [A,,A,]2 | %5
 [A,,E,]3 [A,,E,] [A,,A,]>[A,,A,] [A,,A,]>[A,,E,] | [B,,E,]2 B,,>B,, E,2 E,2 | E,3 E, E,2 E,2 | %8
[M:3/4] A,,6 |[M:1/4] A,2 |[M:4/4] [E,B,]3 [E,B,] E,2 E,D, | %11
 C,>[E,G,] [C,A,]>[E,G,E][K:treble] [A,E]2 [A,EA]2 | [G,E]3 [A,CF] [B,E]2[K:bass] [B,,A,]2 | %13
[M:3/4] E,->[E,-G,] [E,-G,]>[E,-A,] [E,B,]2 |[M:1/4] [E,G,D]2 | %15
[M:4/4] [A,,A,]3 [A,,A,] [A,,E,]>[A,,A,] [B,,G,]>[C,A,] | [D,A,]2 [C,=A,]2 [B,,B,]2 [D,_A,]2 | %17
 [E,A,E]3 [E,B,E] [E,A,E]2 [E,G,D]2 |[M:3/4] [A,,A,]6 |] %19
V:3
 x8 | x8 | x8 | x8 | x8 | x8 | z2[K:bass] E,>E, B,2[K:treble] [FGd]2 | x8 |[M:3/4] x6 |[M:1/4] x2 | %10
[M:4/4] x8 | x8 | x8 |[M:3/4] z z/ B,/ B,>C D2 |[M:1/4] x2 |[M:4/4] x8 | F6 z2 | x8 |[M:3/4] x6 |] %19
V:4
 x8 | x8 | x8 | x8 | x8 | x8 | x8 | x8 |[M:3/4] x6 |[M:1/4] x2 |[M:4/4] x8 | x4[K:treble] x4 | %12
 x6[K:bass] x2 |[M:3/4] G,2 z2 z2 |[M:1/4] x2 |[M:4/4] x8 | x8 | x8 |[M:3/4] x6 |] %19

